<?xml version="1.0" encoding="UTF-8"?>
<map version="1.9" tiledversion="1.9.2" orientation="orthogonal" renderorder="right-down" width="32" height="12" tilewidth="40" tileheight="40" infinite="0" nextlayerid="7" nextobjectid="16">
 <editorsettings>
  <export target="spamton_alley.lua" format="lua"/>
 </editorsettings>
 <tileset firstgid="1" source="../tilesets/bg_dw_city_alley.tsx"/>
 <tileset firstgid="111" source="../tilesets/bg_dw_city_sidewalk_animated.tsx"/>
 <tileset firstgid="243" source="../tilesets/bg_dw_city_alleyway.tsx"/>
 <tileset firstgid="558" source="../tilesets/bg_dw_city_street_edges.tsx"/>
 <tileset firstgid="766" source="../tilesets/bg_dw_city_street.tsx"/>
 <tileset firstgid="876" source="../tilesets/bg_dw_city_splotches.tsx"/>
 <tileset firstgid="906" source="../tilesets/bg_dw_city_alley_animated.tsx"/>
 <layer id="1" name="tiles" width="32" height="12">
  <data encoding="csv">
0,0,503,370,370,501,0,0,0,0,0,0,0,0,0,0,0,0,0,0,0,0,0,0,503,0,0,584,585,586,702,675,
0,0,503,370,370,501,0,0,0,0,0,0,0,0,0,0,0,0,0,0,0,0,0,0,503,840,840,597,598,662,663,664,
0,0,503,370,370,516,517,517,517,517,517,517,517,517,517,517,517,517,517,517,517,517,517,517,518,840,840,702,702,675,676,662,
0,0,503,370,370,531,532,532,532,532,532,532,532,532,532,532,532,532,532,532,532,532,532,532,533,840,840,672,673,674,702,675,
0,0,503,370,370,546,547,547,547,547,547,547,547,547,547,547,547,547,547,547,547,547,547,547,548,840,840,685,686,687,702,702,
0,0,503,370,370,66,49,49,49,49,49,49,49,49,49,49,49,49,49,49,49,49,49,49,62,370,370,486,487,487,487,487,
0,0,503,370,370,60,60,60,60,60,60,60,60,60,60,60,60,60,60,60,60,60,60,60,60,370,370,501,0,0,0,0,
487,487,488,370,370,370,370,370,370,370,370,370,370,370,370,370,370,370,370,370,370,370,370,370,370,370,370,501,0,0,0,0,
0,0,503,486,487,487,487,487,487,487,487,487,488,486,487,487,487,487,487,487,487,487,487,487,487,487,488,501,0,0,0,0,
0,0,503,501,0,0,0,0,0,0,0,0,503,501,0,0,0,0,0,0,0,0,0,0,0,0,503,486,487,487,487,487,
0,0,503,501,0,0,0,0,0,0,0,0,503,501,0,0,0,0,0,0,0,0,0,0,0,0,503,501,0,0,0,0,
0,0,503,501,0,0,0,0,0,0,0,0,503,501,0,0,0,0,0,0,0,0,0,0,0,0,503,501,0,0,0,0
</data>
 </layer>
 <layer id="2" name="posters" width="32" height="12">
  <data encoding="csv">
0,0,0,0,0,0,0,0,0,0,0,0,0,0,0,0,0,0,0,0,0,0,0,0,0,0,0,0,0,0,0,0,
0,0,0,0,0,0,0,0,0,0,0,0,0,0,0,0,0,0,0,0,0,0,0,0,0,0,0,0,0,0,0,0,
0,0,0,0,0,0,289,290,291,0,289,290,291,0,0,0,0,0,0,0,259,260,261,0,0,0,0,0,0,0,0,0,
0,0,0,0,0,0,304,305,306,0,304,305,306,0,0,0,0,0,0,0,274,275,276,0,0,0,0,0,0,0,0,0,
0,0,0,0,0,0,0,0,0,0,0,0,0,0,0,0,0,0,0,0,0,0,0,0,0,0,0,0,0,0,0,0,
0,0,0,0,0,0,0,0,0,0,0,0,0,0,0,0,0,0,0,0,0,0,0,0,0,0,0,0,0,0,0,0,
0,0,0,0,0,0,0,0,0,0,0,0,0,0,0,0,0,0,0,0,0,0,0,0,0,0,0,0,0,0,0,0,
0,0,0,0,0,0,0,0,0,0,0,0,0,0,0,0,0,0,0,0,0,0,0,0,0,0,0,0,0,0,0,0,
0,0,0,0,0,0,0,0,0,0,0,0,0,0,0,0,0,0,0,0,0,0,0,0,0,0,0,0,0,0,0,0,
0,0,0,0,0,0,0,0,0,0,0,0,0,0,0,0,0,0,0,0,0,0,0,0,0,0,0,0,0,0,0,0,
0,0,0,0,0,0,0,0,0,0,0,0,0,0,0,0,0,0,0,0,0,0,0,0,0,0,0,0,0,0,0,0,
0,0,0,0,0,0,0,0,0,0,0,0,0,0,0,0,0,0,0,0,0,0,0,0,0,0,0,0,0,0,0,0
</data>
 </layer>
 <layer id="3" name="glitch_tiles" width="32" height="12">
  <data encoding="csv">
0,0,0,0,0,0,0,0,0,0,0,0,0,0,0,0,0,0,0,0,0,0,0,0,0,111,111,0,0,0,0,0,
0,0,0,901,0,0,0,0,0,0,0,0,0,0,0,0,0,0,0,0,0,0,0,0,0,0,0,0,0,0,0,0,
0,0,0,0,0,0,0,0,0,0,0,0,0,0,0,0,0,0,891,0,0,0,0,0,0,0,0,0,0,0,0,0,
0,0,0,0,0,891,0,0,0,0,0,0,0,0,0,0,0,0,0,0,0,0,0,0,0,0,0,0,0,0,0,0,
0,0,0,0,901,0,0,0,0,0,0,0,0,0,0,0,0,0,0,0,0,0,0,0,0,0,0,0,0,0,0,0,
0,0,0,0,0,0,0,906,0,0,0,0,0,0,0,0,0,0,0,0,0,906,0,0,0,0,0,0,0,0,0,0,
0,0,0,0,0,0,0,0,0,0,0,0,0,0,0,0,0,0,0,0,0,0,0,0,0,0,901,0,0,0,0,0,
0,0,0,0,0,0,0,901,0,0,0,0,0,0,0,0,0,0,0,0,0,0,901,0,0,0,0,0,0,0,0,0,
0,0,0,0,0,0,0,0,0,0,0,0,0,0,0,0,0,0,0,0,0,0,0,0,0,0,0,0,0,0,0,0,
0,0,0,0,0,0,0,0,0,0,0,0,0,0,0,0,0,0,0,0,0,0,0,0,0,0,0,0,0,0,0,0,
0,0,0,0,0,0,0,0,0,0,0,0,0,0,0,0,0,0,0,0,0,0,0,0,0,0,0,0,0,0,0,0,
0,0,0,0,0,0,0,0,0,0,0,0,0,0,0,0,0,0,0,0,0,0,0,0,0,0,0,0,0,0,0,0
</data>
 </layer>
 <objectgroup id="6" name="collisions">
  <object id="4" x="200" y="0" width="800" height="200"/>
  <object id="5" x="120" y="320" width="960" height="40"/>
  <object id="6" x="1080" y="0" width="40" height="360"/>
  <object id="7" x="80" y="0" width="40" height="360"/>
  <object id="11" x="960" y="-40" width="160" height="40"/>
 </objectgroup>
 <objectgroup id="5" name="objects">
  <object id="2" name="script" x="480" y="200" width="40" height="120">
   <properties>
    <property name="cutscene" value="spamton's"/>
    <property name="once" type="bool" value="false"/>
   </properties>
  </object>
  <object id="3" name="dumpster" x="560" y="200" width="40" height="40"/>
  <object id="8" name="interactable" x="240" y="160" width="120" height="40">
   <properties>
    <property name="text1" value="* (Buy Queen Clean! The most popular cleaning flavors!)"/>
   </properties>
  </object>
  <object id="9" name="interactable" x="400" y="160" width="120" height="40">
   <properties>
    <property name="text1" value="* (Queen Clean! Made of 100% acid!)"/>
   </properties>
  </object>
  <object id="13" name="interactable" x="803.181" y="159.973" width="120" height="40">
   <properties>
    <property name="text1" value="* (The poster is torn[wait:1], revealing a faded one underneath.)"/>
    <property name="text2" value="* BIG SHOT AUTOS[wait:1]! TAKE A RIDE AROUND TOWN IN OUR SPECIAL CUNGADERO"/>
    <property name="text3" value="* (The rest is cut off.)"/>
   </properties>
  </object>
  <object id="14" name="script" x="120" y="-40" width="80" height="40">
   <properties>
    <property name="cutscene" value="extra.left_exit"/>
    <property name="once" type="bool" value="false"/>
   </properties>
  </object>
  <object id="15" name="script" x="1000" y="120" width="80" height="40">
   <properties>
    <property name="cutscene" value="extra.right_exit"/>
    <property name="once" type="bool" value="false"/>
   </properties>
  </object>
 </objectgroup>
 <objectgroup id="4" name="markers">
  <object id="1" name="spawn" x="160" y="80">
   <point/>
  </object>
 </objectgroup>
</map>
